X:1
T:Olney (Mason), SM
T:Olney (Mason), SM
T:Lowell Mason, 1832
T:Public Domain Courtesy of the Cyber Hymnal™
C:Lowell Mason, 1832
Z:Public Domain
Z:Courtesy of the Cyber Hymnal™
%%score ( 1 2 ) ( 3 4 )
L:1/8
Q:1/4=112
M:2/2
K:F
V:1 treble 
V:2 treble 
V:3 bass 
V:4 bass 
V:1
 [Fc]4 | [Fc]3 [FB] [FA]2 [FB]2 | [Fc]4 [CF]4 | [CE]2 [CF]2 [EB]2 [FA]2 | [EG]4 [Ec]4 | %5
 [Fc]3 [FB] [FA]2 [Fc]2 | [Fd]4 [Fd]4 | [Fc]6 [Gc]2 | [Ff]6 [Fc]2 | [Fd]4 [Ec]4 | !fermata!F4 |] %11
V:2
 x4 | x8 | x8 | x8 | x8 | x8 | x8 | x8 | x8 | x8 | F4 |] %11
V:3
 [F,A,]4 | [F,A,]3 [F,G,] F,2 [F,G,]2 | [F,A,]4 [A,C]4 | [B,C]2 [A,C]2 [G,C]2 [F,C]2 | %4
 [C,C]4 [C,G,]4 | [F,A,]3 [F,G,] F,2 [A,C]2 | B,4 [B,,B,]4 | [F,A,]6 [E,G,]2 | [D,A,]6 [A,,C]2 | %9
 [B,,B,]4 [C,G,]4 | !fermata![F,A,]4 |] %11
V:4
 x4 | x4 F,2 x2 | x8 | x8 | x8 | x4 F,2 x2 | B,4 x4 | x8 | x8 | x8 | x4 |] %11

